X:052
T:The Bonnie Banks of Loch Lomond
B:Allan's Violin Gems
Z:Nigel Gatherer
M:4/4
L:1/8
K:G
D2|G2 GA B2 AG|A2 AG E2 D2|G2 G2 G2 Bd|e4 d2 d2|e2 ed B2 Bd|
cBAG E2 DE|G2 Bd e2 dB|A4 g2 D2|G2 GA B2 AG|ABAG E2 DE|
G2 G2 G2 Bd|e4 d2 d2|e2 ge d2 Bd|cBAG E2 DE|GGBd e2 dB|A4 G2|]
<end>
<start>
